X:1
T:12 Bar Blues
T:12 Bar Blues
T:Piano
L:1/8
Q:1/4=150
M:4/4
K:Bb
V:1 treble nm="Piano" snm="Pno."
V:1
 C2 =E2 G2 AG | B2 A2 G2 AG :| F2 A2 c2 dc | e2 d2 c2 dc | C2 =E2 G2 AG | B2 A2 G2 AG | %6
 G2 =B2 d2 =ed | F2 A2 c2 dc | C2 =E2 G2 AG | B2 A2 G2 AG | !fermata![C=EG]8 |] %11

